X:1
T:Title
%%score ( 1 2 ) { 3 | 4 }
L:1/8
Q:1/4=96
M:3/4
K:G
V:1 treble nm="Grand Piano, Soprano"
V:2 treble 
V:3 treble nm="Choir Pad, Hampshire, Schauffler"
V:4 bass 
V:1
 G[GA] [GB]3 [Gd] | [Fc][GB] BA G2 | [GB][Ac] [Bd]3 [GB] | [Ge][Ec] [FA]4 | [FA][GB] [Ac]3 [Fe] | %5
w: By~Alfred~Theodore~Schauffler * * *|||||
 [Gd][Ac] dc [DB]2 | [EA][EB] [Ec]3 [EA] | [DG][DF] [DG]4- | [DG]4 z2 |] %9
w: ||||
V:2
 x6 | z2 F2 z2 | x6 | x6 | x6 | z2 G2 z2 | x6 | x6 | x6 |] %9
V:3
 B,C D3 B, | CD DC B,2 | DD D3 D | CC C4 | A,G, F,3 C | B,A, B,A, G,2 | A,G, A,3 C | B,A, B,4- | %8
 B,4 z2 |] %9
V:4
 G,G, G,3 G, | D,D, D,^D, E,2 | B,,A,, G,,3 G,, | C,C, D,4 | D,D, D,3 D, | D,D, G,2 z2 | %6
 C,B,, A,,3 A,, | D,D, G,,4- | G,,4 z2 |] %9

